24x24/apps/infinifactory.svg

<svg xmlns="http://www.w3.org/2000/svg" width="24" height="24" version="1.1">
 <path style="fill:#4f4f4f" d="M 12.05385,2.0006653 A 2.2828187,2.2739686 0 0 0 10.858341,2.3040178 L 4.1412856,6.1670495 A 2.2828187,2.2739686 0 0 0 2.9997762,8.1365657 v 7.7265633 a 2.2828187,2.2739686 0 0 0 1.1414094,1.969316 l 6.7170554,3.863232 a 2.2828187,2.2739686 0 0 0 2.282818,0 l 6.717055,-3.863232 a 2.2828187,2.2739686 0 0 0 1.14151,-1.969516 V 8.1363657 A 2.2828187,2.2739686 0 0 0 19.858114,6.1668495 L 13.141059,2.3038178 A 2.2828187,2.2739686 0 0 0 12.05355,2.0004653 Z"/>
 <path style="opacity:0.3" d="m 4.3358985,6.5533897 v 0 C 3.7696812,6.8800428 3.1770364,7.0464852 3.0477781,7.6854255 l 7.9522139,4.4199585 v 1.132821 L 12,12.499918 11.499996,11.196196 12,11.49991 10.996086,9.8153254 4.8632227,6.406118 4.8749417,6.399278 Z"/>
 <ellipse style="fill:#f4f4f7" cx="1.277" cy="9.038" rx="1.425" ry="1.812" transform="matrix(0.94525252,-0.3263398,0.36434719,0.93126319,0,0)"/>
 <path style="opacity:0.1;fill:#f4f4f7" d="M 12.05335,2.0010153 A 2.2828187,2.2739686 0 0 0 10.858341,2.3037178 L 4.1412856,6.1670495 A 2.2828187,2.2739686 0 0 0 2.9997762,8.1365657 V 8.6365698 A 2.2828187,2.2739686 0 0 1 4.1413856,6.6670536 L 10.858441,2.8037219 a 2.2828187,2.2739686 0 0 1 1.195309,-0.3027375 2.2828187,2.2739686 0 0 1 1.087909,0.3027375 l 6.717055,3.8633317 a 2.2828187,2.2739686 0 0 1 1.14151,1.9695162 V 8.1365657 A 2.2828187,2.2739686 0 0 0 19.858714,6.1670495 L 13.141659,2.3037178 A 2.2828187,2.2739686 0 0 0 12.05365,2.0010153 Z"/>
 <path style="opacity:0.2" d="m 2.9997762,15.863129 v 0.500004 a 2.2828187,2.2739686 0 0 0 1.1416094,1.968766 l 6.7170554,3.863332 a 2.2828187,2.2739686 0 0 0 2.283218,0 l 6.717055,-3.863532 a 2.2828187,2.2739686 0 0 0 1.14151,-1.969016 v -0.500004 a 2.2828187,2.2739686 0 0 1 -1.14161,1.968766 l -6.717055,3.863332 a 2.2828187,2.2739686 0 0 1 -2.283218,0 L 4.1412856,17.831245 A 2.2828187,2.2739686 0 0 1 2.9997762,15.862229 Z"/>
 <ellipse style="fill:#f4f4f7" cx="5.684" cy="14.072" rx="1.425" ry="1.812" transform="matrix(0.94525252,-0.3263398,0.36434719,0.93126319,0,0)"/>
 <ellipse style="fill:#f4f4f7" cx="3.471" cy="11.579" rx="1.425" ry="1.812" transform="matrix(0.94525252,-0.3263398,0.36434719,0.93126319,0,0)"/>
 <path style="fill:#d87900" d="M 3.2303968,7.142452 A 2.2828187,2.2739686 0 0 0 2.9999262,8.1366012 v 7.7266258 a 2.2828187,2.2739686 0 0 0 1.1416109,1.968766 l 6.7168519,3.863313 A 2.2828187,2.2739686 0 0 0 12,21.999019 v -9.981527 z"/>
 <path style="fill:#ad6200" d="M 20.775462,7.1610072 11.999023,12.038977 12,21.999019 a 2.2828187,2.2739686 0 0 0 1.140634,-0.303713 l 6.717829,-3.863313 a 2.2828187,2.2739686 0 0 0 1.141611,-1.968766 V 8.1366012 a 2.2828187,2.2739686 0 0 0 -0.224612,-0.975594 z"/>
 <path style="opacity:0.1;fill:#f4f4f7" d="m 20.775462,7.1610072 -8.776439,4.8779698 v 3.001977 l 8.776439,-4.877969 a 2.2828187,2.2739686 0 0 1 0.224612,0.975594 V 8.1366012 a 2.2828187,2.2739686 0 0 0 -0.224612,-0.975594 z"/>
 <path style="opacity:0.1" d="M 3.2303968,7.142452 A 2.2828187,2.2739686 0 0 0 2.9999262,8.1366012 V 8.6366053 A 2.2828187,2.2739686 0 0 1 3.2303968,7.6424561 L 12,12.517496 v -0.500004 z"/>
 <path style="opacity:0.1;fill:#f4f4f7" d="m 20.775462,7.1610072 -8.776439,4.8779698 v 0.500004 l 8.776439,-4.8779697 a 2.2828187,2.2739686 0 0 1 0.224612,0.975594 V 8.1366012 a 2.2828187,2.2739686 0 0 0 -0.224612,-0.975594 z"/>
 <path style="opacity:0.2;fill:none;stroke:#f4f4f7;stroke-width:0.50000411px" d="M 6.6177904,6.1889037 10.621205,5.2901778 12.173549,3.084215 v 0"/>
 <path style="opacity:0.2;fill:none;stroke:#f4f4f7;stroke-width:0.50000411px" d="M 9.0688605,7.5778431 12.990573,6.719969 14.542917,4.30975"/>
 <path style="opacity:0.2;fill:none;stroke:#f4f4f7;stroke-width:0.50000411px" d="M 11.356526,8.8850808 15.237387,7.9863549 16.789731,5.6986897"/>
 <path style="opacity:0.1" d="m 20.775462,10.162985 -8.776439,4.877969 v 0.500004 l 8.776439,-4.877969 a 2.2828187,2.2739686 0 0 1 0.224612,0.975594 v -0.500004 a 2.2828187,2.2739686 0 0 0 -0.224612,-0.975594 z"/>
 <path style="opacity:0.3;fill:#f4f4f7" d="M 6.2,10.845753 6,13.226725 3.011581,11.167885 v 2.380971 L 5.8995313,15.607697 5.8,17.989 12,17.958 6.2,10.845753"/>
 <path style="opacity:0.1" d="m 3.0117188,13.548828 v 0.5 l 2.84875,2.03125 0.039063,-0.472656 z m 8.5820312,4.410156 -5.7519531,0.0293 -0.041016,0.5 L 12,18.457031 Z"/>
 <path style="opacity:0.2;fill:#f4f4f7" d="M 6.1992188 10.845703 L 6 13.226562 L 3.0117188 11.167969 L 3.0117188 11.667969 L 6 13.726562 L 6.1992188 11.345703 L 11.59375 17.958984 L 12 17.957031 L 6.1992188 10.845703 z M 5.9609375 16.080078 L 5.8007812 17.988281 L 5.8417969 17.988281 L 6 16.107422 L 5.9609375 16.080078 z"/>
</svg>

<svg xmlns="http://www.w3.org/2000/svg" width="24" height="24"><path style="fill:#4f4f4f" d="M12.054 2a2.283 2.274 0 0 0-1.196.304L4.141 6.167A2.283 2.274 0 0 0 3 8.137v7.726a2.283 2.274 0 0 0 1.141 1.97l6.717 3.863a2.283 2.274 0 0 0 2.283 0l6.717-3.864A2.283 2.274 0 0 0 21 15.862V8.137a2.283 2.274 0 0 0-1.142-1.97l-6.717-3.862A2.283 2.274 0 0 0 12.054 2z"/><path style="opacity:.3" d="M4.336 6.553c-.566.327-1.159.493-1.288 1.132L11 12.105v1.133l1-.738-.5-1.304.5.304-1.004-1.685-6.133-3.409.012-.007z"/><ellipse style="fill:#f4f4f7" cx="1.277" cy="9.038" rx="1.425" ry="1.812" transform="matrix(.94525 -.32634 .36435 .93126 0 0)"/><path style="opacity:.1;fill:#f4f4f7" d="M12.053 2.001a2.283 2.274 0 0 0-1.195.303L4.141 6.167A2.283 2.274 0 0 0 3 8.137v.5a2.283 2.274 0 0 1 1.141-1.97l6.717-3.863a2.283 2.274 0 0 1 1.196-.303 2.283 2.274 0 0 1 1.088.303l6.717 3.863A2.283 2.274 0 0 1 21 8.637v-.5a2.283 2.274 0 0 0-1.141-1.97l-6.717-3.863A2.283 2.274 0 0 0 12.054 2z"/><path style="opacity:.2" d="M3 15.863v.5a2.283 2.274 0 0 0 1.141 1.969l6.717 3.863a2.283 2.274 0 0 0 2.284 0l6.717-3.863A2.283 2.274 0 0 0 21 16.362v-.5a2.283 2.274 0 0 1-1.141 1.97l-6.717 3.863a2.283 2.274 0 0 1-2.284 0L4.141 17.83A2.283 2.274 0 0 1 3 15.862z"/><ellipse style="fill:#f4f4f7" cx="5.684" cy="14.072" rx="1.425" ry="1.812" transform="matrix(.94525 -.32634 .36435 .93126 0 0)"/><ellipse style="fill:#f4f4f7" cx="3.471" cy="11.579" rx="1.425" ry="1.812" transform="matrix(.94525 -.32634 .36435 .93126 0 0)"/><path style="fill:#d87900" d="M3.23 7.142a2.283 2.274 0 0 0-.23.995v7.726a2.283 2.274 0 0 0 1.142 1.969l6.716 3.863A2.283 2.274 0 0 0 12 22v-9.982z"/><path style="fill:#ad6200" d="M20.775 7.161 12 12.039l.001 9.96a2.283 2.274 0 0 0 1.14-.304l6.718-3.863A2.283 2.274 0 0 0 21 15.863V8.137a2.283 2.274 0 0 0-.225-.976z"/><path style="opacity:.1;fill:#f4f4f7" d="M20.775 7.161 12 12.039v3.002l8.776-4.878a2.283 2.274 0 0 1 .225.976V8.137a2.283 2.274 0 0 0-.225-.976z"/><path style="opacity:.1" d="M3.23 7.142a2.283 2.274 0 0 0-.23.995v.5a2.283 2.274 0 0 1 .23-.995L12 12.517v-.5z"/><path style="opacity:.1;fill:#f4f4f7" d="M20.775 7.161 12 12.039v.5l8.776-4.878a2.283 2.274 0 0 1 .225.976v-.5a2.283 2.274 0 0 0-.225-.976z"/><path style="opacity:.2;fill:none;stroke:#f4f4f7;stroke-width:.50000411px" d="m6.618 6.189 4.003-.899 1.553-2.206M9.069 7.578l3.922-.858 1.552-2.41M11.357 8.885l3.88-.899L16.79 5.7"/><path style="opacity:.1" d="M20.775 10.163 12 15.041v.5l8.776-4.878a2.283 2.274 0 0 1 .225.976v-.5a2.283 2.274 0 0 0-.225-.976z"/><path style="opacity:.3;fill:#f4f4f7" d="m6.2 10.846-.2 2.38-2.988-2.058v2.38l2.888 2.06-.1 2.381 6.2-.031-5.8-7.112"/><path style="opacity:.1" d="M3.012 13.549v.5L5.86 16.08l.04-.473zm8.582 4.41-5.752.03-.041.5L12 18.456z"/><path style="opacity:.2;fill:#f4f4f7" d="m6.2 10.846-.2 2.38-2.988-2.058v.5L6 13.727l.2-2.381 5.394 6.613.406-.002-5.8-7.111zm-.24 5.234-.16 1.908h.042L6 16.108l-.04-.028z"/></svg>
